X: 1
T:Orlando's Return
Z:Michael J Green <GreenMichaelJ@aol.com> 2003-4-14
M:4/4
L:1/8
Q:160
K:G
D EF \
|: GFGA G2A2 | BABc B2c2 |  d2B2 c2B2 | AGFE D2D2 | GFGA G2A2 | BABc B2c2 |
|  d2G2 BAGF |1 G4- GDEF:|2 G4- GBc^c |: d3d d2B2 | c2e2 A2c2 | B2G2 c2B2 |
|  AGFE D2D2 | GFGA G2A2 |  BABc B2c2 | d2G2 BAGF |1 G4- GBc^c :|2 G6 z2 |]
